svg/comment_plus_outline.svg

<svg xmlns="http://www.w3.org/2000/svg" viewBox="0 0 24 24"><path d="M9 22a1 1 0 0 1-1-1v-3H4a2 2 0 0 1-2-2V4a2 2 0 0 1 2-2h16a2 2 0 0 1 2 2v12a2 2 0 0 1-2 2h-6.1l-3.7 3.71c-.2.19-.45.29-.7.29zm1-6v3.08L13.08 16H20V4H4v12zm1-10h2v3h3v2h-3v3h-2v-3H8V9h3z"/></svg>

<?xml version="1.0" encoding="UTF-8"?><!DOCTYPE svg PUBLIC "-//W3C//DTD SVG 1.1//EN" "http://www.w3.org/Graphics/SVG/1.1/DTD/svg11.dtd"><svg xmlns="http://www.w3.org/2000/svg" xmlns:xlink="http://www.w3.org/1999/xlink" version="1.1" id="mdi-comment-plus-outline" width="24" height="24" viewBox="0 0 24 24"><path d="M9,22A1,1 0 0,1 8,21V18H4A2,2 0 0,1 2,16V4C2,2.89 2.9,2 4,2H20A2,2 0 0,1 22,4V16A2,2 0 0,1 20,18H13.9L10.2,21.71C10,21.9 9.75,22 9.5,22V22H9M10,16V19.08L13.08,16H20V4H4V16H10M11,6H13V9H16V11H13V14H11V11H8V9H11V6Z" /></svg>
